asset_auto_exported/icn_tv_guide.svg

<?xml version="1.0" encoding="UTF-8"?>
<svg width="24px" height="24px" viewBox="0 0 24 24" version="1.1" xmlns="http://www.w3.org/2000/svg" xmlns:xlink="http://www.w3.org/1999/xlink">
    <title>icn_tv_guide</title>
    <g id="Quique" stroke="none" stroke-width="1" fill="none" fill-rule="evenodd">
        <g id="Assets/Global/24/TvGuide" fill="#000000" fill-rule="nonzero">
            <g id="-----ICON-LAYERS-----">
                <path d="M12,-0.0002 C18.627,-0.0002 24,5.3728 24,11.9998 C24,18.6278 18.627,23.9998 12,23.9998 C5.373,23.9998 0,18.6278 0,11.9998 C0,5.3728 5.373,-0.0002 12,-0.0002 Z M13.876,18.7881 L10.055,18.7881 L9.96001415,18.7944902 C9.61834362,18.8408418 9.355,19.1337173 9.355,19.4881 C9.355,19.8746993 9.66840068,20.1881 10.055,20.1881 L10.055,20.1881 L13.876,20.1881 L13.9709859,20.1817098 C14.3126564,20.1353582 14.576,19.8424827 14.576,19.4881 C14.576,19.1015007 14.2625993,18.7881 13.876,18.7881 L13.876,18.7881 Z M16.9385,4.8437 L7.0615,4.8437 L6.8838714,4.84865573 C5.23773307,4.94075183 3.9315,6.30493433 3.9315,7.9747 L3.9315,7.9747 L3.9315,14.6177 L3.93645501,14.7953094 C4.02853738,16.4412813 5.39250755,17.7477 7.0615,17.7477 L7.0615,17.7477 L16.9385,17.7477 L17.1161094,17.742745 C18.7620813,17.6506626 20.0685,16.2866925 20.0685,14.6177 L20.0685,14.6177 L20.0685,7.9747 L20.0635457,7.79700989 C19.9714759,6.15030437 18.6076847,4.8437 16.9385,4.8437 L16.9385,4.8437 Z M16.9385,6.2437 C17.8940107,6.2437 18.6685,7.01840943 18.6685,7.9747 L18.6685,7.9747 L18.6685,14.6177 L18.6621495,14.7669637 C18.5864624,15.6524917 17.8436164,16.3477 16.9385,16.3477 L16.9385,16.3477 L7.0615,16.3477 L6.91223634,16.3413495 C6.02670826,16.2656624 5.3315,15.5228164 5.3315,14.6177 L5.3315,14.6177 L5.3315,7.9747 L5.33784968,7.82530221 C5.41352663,6.93900708 6.15627932,6.2437 7.0615,6.2437 L7.0615,6.2437 Z M17.4564903,10.8615069 C12.7567784,6.16288819 11.1614242,6.08576922 6.55560919,10.6926073 C6.46186501,10.7863723 6.40098564,10.9068534 6.38038365,11.0366642 L6.38038365,11.0366642 L6.3726,11.1355 L6.3803882,11.2338763 C6.40100214,11.3632116 6.46191632,11.4837216 6.55570967,11.5774931 L6.55570967,11.5774931 L7.01555948,12.0319477 L7.23814812,12.2476169 C11.4224831,16.2721138 13.0810665,16.1228889 17.4565908,11.7463927 C17.550335,11.6526277 17.6112144,11.5321466 17.6318163,11.4023358 L17.6318163,11.4023358 L17.6396,11.3035 L17.6318118,11.2051237 C17.6111979,11.0757884 17.5502837,10.9552784 17.4564903,10.8615069 Z M8.2597879,10.7709983 C11.4748837,7.68923228 12.5233482,7.79137305 15.9323505,11.1126264 L15.9323505,11.1126264 L16.127,11.303 L15.9520003,11.4753442 L15.5582382,11.8527027 L15.3652813,12.0331195 C12.4468002,14.7358633 11.3482286,14.5106234 8.07984954,11.3263736 L8.07984954,11.3263736 L7.884,11.135 L8.06019966,10.9636558 Z M12.0957,9.527 L11.9507,9.527 L11.8038063,9.53324663 C10.9323141,9.60769558 10.2477,10.3383975 10.2477,11.229 L10.2477,11.229 L10.2477,11.375 L10.2539537,11.5218681 C10.3284857,12.3931719 11.0599798,13.077 11.9507,13.077 L11.9507,13.077 L12.0957,13.077 L12.2425937,13.0707534 C13.1140859,12.9963044 13.7987,12.2656025 13.7987,11.375 L13.7987,11.375 L13.7987,11.229 L13.7924463,11.0821319 C13.7179143,10.2108281 12.9864202,9.527 12.0957,9.527 L12.0957,9.527 Z M12.0957,10.527 C12.4838769,10.527 12.7987,10.8414616 12.7987,11.229 L12.7987,11.229 L12.7987,11.375 L12.7922809,11.4702225 C12.7457201,11.8127649 12.4515289,12.077 12.0957,12.077 L12.0957,12.077 L11.9507,12.077 L11.8553237,12.0705884 C11.5122388,12.0240823 11.2477,11.7302435 11.2477,11.375 L11.2477,11.375 L11.2477,11.229 L11.2541191,11.1337775 C11.3006799,10.7912351 11.5948711,10.527 11.9507,10.527 L11.9507,10.527 Z" id="Combined-Shape"></path>
            </g>
        </g>
    </g>
</svg>

<svg width="24" height="24" viewBox="0 0 24 24" xmlns="http://www.w3.org/2000/svg"><path d="M12 0c6.627 0 12 5.373 12 12 0 6.628-5.373 12-12 12S0 18.628 0 12C0 5.373 5.373 0 12 0zm1.876 18.788h-3.821l-.095.006a.7.7 0 00.095 1.394h3.821l.095-.006a.7.7 0 00-.095-1.394zm3.063-13.944H7.06l-.177.005A3.13 3.13 0 003.93 7.975v6.643l.005.177a3.13 3.13 0 003.125 2.953h9.878l.177-.005a3.13 3.13 0 002.953-3.125V7.975l-.005-.178a3.13 3.13 0 00-3.125-2.953zm0 1.4c.955 0 1.73.774 1.73 1.73v6.644l-.007.149a1.73 1.73 0 01-1.723 1.58H7.06l-.149-.006a1.73 1.73 0 01-1.58-1.723V7.975l.006-.15A1.73 1.73 0 017.06 6.244zm.517 4.618c-4.7-4.7-6.295-4.776-10.9-.17a.625.625 0 00-.176.345l-.007.098.007.099c.021.13.082.25.176.343l.46.455.222.216c4.184 4.024 5.843 3.875 10.219-.502a.625.625 0 00.175-.344l.008-.098-.008-.099a.625.625 0 00-.176-.343zM8.26 10.77c3.215-3.082 4.263-2.98 7.672.342l.195.19-.175.172-.394.378-.193.18c-2.918 2.703-4.017 2.478-7.285-.707l-.196-.191.176-.171zm3.836-1.244h-.145l-.147.006a1.703 1.703 0 00-1.556 1.696v.146l.006.147a1.703 1.703 0 001.697 1.555h.145l.147-.006a1.703 1.703 0 001.556-1.696v-.146l-.007-.147a1.703 1.703 0 00-1.696-1.555zm0 1c.388 0 .703.314.703.702v.146l-.007.095a.703.703 0 01-.696.607h-.145l-.096-.006a.703.703 0 01-.607-.696v-.146l.006-.095a.703.703 0 01.697-.607z" fill="#000" fill-rule="nonzero"/></svg>
